X:1
T:Latha dhómhsa 's mi siubhal garbhlaich
L:1/8
M:2/4
I:linebreak $
K:Emin
V:1 treble 
V:1
 e>d e2 | e>f g>f | ed B2 | g>f{f} e2 | dc B>A | BD G>F | G2 GG | AB g>f | ge dB | e2 dc | %10
 BE G2 ||$ CuG>A B>A | G2 EE | DG E2 | EE D>E | G2 GG | AB g>f | g>e dB | e2 dc | BE G2 | G>A B>A | %21
 G2 EE |$ DG EE || %23
